X:4522
T:My Love is in the House
O:england
B:Joyce, P. W.; "Old Irish Folk Music and Songs"
R:reel
L:1/8
M:C
K:D
FAdA BdAF|GBAF GE E2|FAdA BdAF|GBAG FD D2:|
dfaf bgaf|dfaf ge e2|d/e/f/g/af bgaf|dfag fd d2|
dfaf bgaf|d/e/f/g/af geeg|fafd ecAF|GBAG FD D2:|


